X:1
T:Title
%%score { ( 1 3 ) | ( 2 4 ) }
L:1/8
M:3/4
K:Ab
V:1 treble nm="Grand Piano"
V:3 treble 
V:2 bass 
V:4 bass 
V:1
 z2 z[Q:1/4=90] A G>A | B3 F =E>F | A3 D C>D | [B,C_G]3 [B,CG] [CF]>[C=E] |[M:3/8] F3 | AB>F | %6
[M:3/4] F3 A G>A | c3 c [Ee]>[Ec] | [DB]3 [Fd] [DB]>[Ec] |[M:3/8] [A,CA]3 | z z A | %11
[M:4/4] [Fd]4 [_Gd]4 | [Fd]4- [Fd]F E>D | z _G G>F E>[CB] [DA]>[CG] |[M:5/8] F-F- F3 | %15
[M:3/8] AG>A |[M:4/4] d6 z2 | B8 | A4 e4 |[M:5/8] [Fd]-[Fd]- [Fd]3 |] %20
V:2
 z2 z [D,F,D] [D,=E,D]>[D,F,D] | [D,_G,D]3 [D,A,D] [D,=G,D]>[D,A,D] | %2
 [F,A,D]3 [F,A,] [E,_G,A,]>[D,F,A,] | A,,3 A,, [A,,A,]>[A,,A,] |[M:3/8] [D,A,D]3 | %5
 [D,F,D][D,_G,D]>[D,A,D] |[M:3/4] [D,A,D]3 [F,A,D] [=E,B,D]>[F,A,D] | %7
 [E,A,E]3 [E,A,E] [C,A,]>[E,A,] | [E,G,]3 [E,F,] [E,G,]>[E,G,] |[M:3/8] A,,3 | z z A, | %11
[M:4/4] [D,A,]4 [D,B,]4 | [D,A,]6 z2 | z [A,,A,] [A,,E,]>[A,,F,] [A,,_G,]>[A,,E,] [A,,F,]>[A,,A,] | %14
[M:5/8] [D,A,D]-[D,A,D]- [D,A,D]3 |[M:3/8] z3 |[M:4/4] z [D,A,] [D,C]>[D,B,] .[D,A,]2 z2 | %17
 z [_G,E] [G,D]>[G,C] [G,B,]3 [G,D_G] | D2 z2[K:bass] C2 z2 |[M:5/8] [D,A,]-[D,A,]- [D,A,]3 |] %20
V:3
 x6 | x6 | x6 | x6 |[M:3/8] x3 | x3 |[M:3/4] x6 | x6 | x6 |[M:3/8] x3 | x3 |[M:4/4] x8 | x8 | %13
 C6 z2 |[M:5/8] x5 |[M:3/8] x3 |[M:4/4] z F F>F FA G>A | z _G G>G G3 B | z2 B,2 z2 A,2 | %19
[M:5/8] x5 |] %20
V:4
 x6 | x6 | x6 | x6 |[M:3/8] x3 | x3 |[M:3/4] x6 | x6 | x6 |[M:3/8] x3 | x3 |[M:4/4] x8 | x8 | x8 | %14
[M:5/8] x5 |[M:3/8] x3 |[M:4/4] x8 | x8 | [A,F]4[K:bass] [A,,_G]4 |[M:5/8] x5 |] %20

